packages/IcoMoon/src/FolderUploadIcon/index.svg

<svg version="1.1" xmlns="http://www.w3.org/2000/svg" width="16" height="16" viewBox="0 0 16 16">
<path d="M9 4l-2-2h-7v13h16v-11h-7zM8 7.5l3.5 3.5h-2.5v4h-2v-4h-2.5l3.5-3.5z"></path>
</svg>

<svg xmlns="http://www.w3.org/2000/svg" viewBox="0 0 16 16">
  <path d="M9 4L7 2H0v13h16V4H9zM8 7.5l3.5 3.5H9v4H7v-4H4.5L8 7.5z"/>
</svg>
